128x128/mimetypes/application-wps-office.ppt.svg

<svg height="128" viewBox="0 0 33.866665 33.866665" width="128" xmlns="http://www.w3.org/2000/svg"><g transform="translate(21.276462 -268.106398)"><path d="m-16.778546 268.37098h24.8708329c1.172633 0 2.1166661.94403 2.1166661 2.11667v29.10416c0 1.17264-.9440331 2.11667-2.1166661 2.11667h-24.8708329c-1.172633 0-2.116666-.94403-2.116666-2.11667v-29.10416c0-1.17264.944033-2.11667 2.116666-2.11667z" fill="#d72f4a"/><path d="m-16.778546 268.63556h24.8708329c1.026054 0 1.852083.82603 1.852083 1.85209v29.10416c0 1.02606-.826029 1.85209-1.852083 1.85209h-24.8708329c-1.026054 0-1.852083-.82603-1.852083-1.85209v-29.10416c0-1.02606.826029-1.85209 1.852083-1.85209z" fill="#ff778a"/></g><path d="m289.64999-35h7.00001v20.999996h-7.00001z" fill="#fdbbbb" transform="matrix(0 .52916663 -.52916663 0 4.233334 -136.868949)"/><path d="m11 9v29h7v-22h12v14h7v-21h-2.5-4.5-12-4z" fill="#fff6f6" transform="matrix(.52916663 0 0 .52916663 4.233334 4.233328)"/></svg>

<?xml version="1.0" encoding="UTF-8" standalone="no"?>
<!-- Created with Inkscape (http://www.inkscape.org/) -->

<svg
   xmlns:dc="http://purl.org/dc/elements/1.1/"
   xmlns:cc="http://creativecommons.org/ns#"
   xmlns:rdf="http://www.w3.org/1999/02/22-rdf-syntax-ns#"
   xmlns:svg="http://www.w3.org/2000/svg"
   xmlns="http://www.w3.org/2000/svg"
   xmlns:sodipodi="http://sodipodi.sourceforge.net/DTD/sodipodi-0.dtd"
   xmlns:inkscape="http://www.inkscape.org/namespaces/inkscape"
   width="128"
   height="128"
   viewBox="0 0 33.866665 33.866665"
   version="1.1"
   id="svg1399"
   inkscape:version="0.92.4 5da689c313, 2019-01-14"
   sodipodi:docname="application-wps-office.ppt.svg">
  <defs
     id="defs1393">
    <style
       id="current-color-scheme"
       type="text/css">
      .ColorScheme-Text {
        color:#122036;
      }
      </style>
    <style
       type="text/css"
       id="current-color-scheme-53">
      .ColorScheme-Text {
        color:#122036;
      }
      </style>
    <style
       id="current-color-scheme-5"
       type="text/css">
      .ColorScheme-Text {
        color:#122036;
      }
      </style>
    <style
       id="current-color-scheme-2"
       type="text/css">
      .ColorScheme-Text {
        color:#122036;
      }
      </style>
    <style
       id="current-color-scheme-1"
       type="text/css">
      .ColorScheme-Text {
        color:#122036;
      }
      </style>
    <style
       type="text/css"
       id="current-color-scheme-10">
      .ColorScheme-Text {
        color:#122036;
      }
      </style>
    <style
       id="current-color-scheme-0"
       type="text/css">
      .ColorScheme-Text {
        color:#122036;
      }
      </style>
    <style
       id="current-color-scheme-26"
       type="text/css">
      .ColorScheme-Text {
        color:#122036;
      }
      </style>
  </defs>
  <sodipodi:namedview
     id="base"
     pagecolor="#ffffff"
     bordercolor="#666666"
     borderopacity="1.0"
     inkscape:pageopacity="0.0"
     inkscape:pageshadow="2"
     inkscape:zoom="7.9999999"
     inkscape:cx="13.845235"
     inkscape:cy="58.98204"
     inkscape:document-units="px"
     inkscape:current-layer="layer1-67"
     showgrid="true"
     inkscape:showpageshadow="false"
     units="px"
     inkscape:window-width="1920"
     inkscape:window-height="1049"
     inkscape:window-x="0"
     inkscape:window-y="0"
     inkscape:window-maximized="1">
    <inkscape:grid
       type="xygrid"
       id="grid4453" />
  </sodipodi:namedview>
  <metadata
     id="metadata1396">
    <rdf:RDF>
      <cc:Work
         rdf:about="">
        <dc:format>image/svg+xml</dc:format>
        <dc:type
           rdf:resource="http://purl.org/dc/dcmitype/StillImage" />
        <dc:title />
      </cc:Work>
    </rdf:RDF>
  </metadata>
  <g
     inkscape:label="Capa 1"
     inkscape:groupmode="layer"
     id="layer1"
     transform="translate(0,-263.13338)">
    <g
       id="g4432"
       transform="translate(21.276462,-4.9730175)">
      <path
         id="rect928"
         d="M -16.778546,268.37098 H 8.0922869 c 1.172633,0 2.1166661,0.94403 2.1166661,2.11667 v 29.10416 c 0,1.17264 -0.9440331,2.11667 -2.1166661,2.11667 H -16.778546 c -1.172633,0 -2.116666,-0.94403 -2.116666,-2.11667 v -29.10416 c 0,-1.17264 0.944033,-2.11667 2.116666,-2.11667 z"
         style="opacity:1;vector-effect:none;fill:#d72f4a;fill-opacity:1;stroke:none;stroke-width:0.60079932;stroke-linecap:round;stroke-linejoin:round;stroke-miterlimit:4;stroke-dasharray:none;stroke-dashoffset:0;stroke-opacity:1"
         inkscape:connector-curvature="0" />
      <path
         id="rect928-2"
         d="M -16.778546,268.63556 H 8.0922869 c 1.026054,0 1.852083,0.82603 1.852083,1.85209 v 29.10416 c 0,1.02606 -0.826029,1.85209 -1.852083,1.85209 H -16.778546 c -1.026054,0 -1.852083,-0.82603 -1.852083,-1.85209 v -29.10416 c 0,-1.02606 0.826029,-1.85209 1.852083,-1.85209 z"
         style="opacity:1;vector-effect:none;fill:#ff778a;fill-opacity:1;stroke:none;stroke-width:0.60079932;stroke-linecap:round;stroke-linejoin:round;stroke-miterlimit:4;stroke-dasharray:none;stroke-dashoffset:0;stroke-opacity:1"
         inkscape:connector-curvature="0" />
    </g>
    <g
       transform="matrix(1.9999999,0,0,1.9999999,2.2666665e-7,-297.00003)"
       id="layer1-62"
       inkscape:label="Capa 1">
      <g
         transform="translate(10.93891,-3.1880891)"
         id="g2934">
        <g
           transform="matrix(0.26458333,0,0,0.26458333,-10.93891,216.937)"
           id="layer1-6"
           inkscape:label="Capa 1">
          <g
             transform="translate(38,-6)"
             id="g1769" />
        </g>
        <g
           style="isolation:isolate"
           transform="matrix(0.26458333,0,0,0.26458333,3.3485899,282.34994)"
           class="cls-1"
           id="g2054">
          <g
             id="Icons_-_Color"
             data-name="Icons - Color" />
        </g>
        <g
           style="isolation:isolate;fill:#faf8f8;fill-opacity:1"
           transform="matrix(0.26458333,0,0,0.26458333,3.3485899,282.08536)"
           class="cls-1"
           id="g2054-7">
          <g
             style="fill:#faf8f8;fill-opacity:1"
             id="Icons_-_Color-4"
             data-name="Icons - Color" />
        </g>
        <g
           inkscape:label="Capa 1"
           id="layer1-67"
           transform="matrix(0.26458333,0,0,0.26458333,-8.8222434,214.82033)">
          <g
             id="g5422"
             transform="translate(-24,-4.000005)">
            <g
               transform="matrix(5.5433071,0,0,5.5433071,24.533333,-1328.2455)"
               id="layer1-3-2"
               inkscape:label="Capa 1" />
          </g>
          <path
             inkscape:connector-curvature="0"
             transform="rotate(90)"
             style="opacity:1;fill:#fdbbbb;fill-opacity:1;stroke:none;stroke-width:2;stroke-linecap:round;stroke-linejoin:round;stroke-miterlimit:4;stroke-dasharray:none;stroke-opacity:1"
             d="M 289.64999,-35 H 296.65 v 20.999996 h -7.00001 z"
             id="rect1099-6-2" />
          <path
             style="opacity:1;fill:#fff6f6;fill-opacity:1;stroke:none;stroke-width:2;stroke-linecap:round;stroke-linejoin:round;stroke-miterlimit:4;stroke-dasharray:none;stroke-opacity:1"
             d="m 11,9 v 29 h 7 V 16 h 12 v 14 h 7 V 9 H 34.5 30 18 14 Z"
             transform="translate(0,266.64999)"
             id="rect1099"
             inkscape:connector-curvature="0"
             sodipodi:nodetypes="ccccccccccccc" />
        </g>
      </g>
    </g>
  </g>
</svg>
